X: 1
T: the Drunken Piper
T: Far am bi mi fh\`in (bidh mo dh\`ochas ann)
T: Where I will be (my hope will be there)
C: trad. Scotland
R: march, reel
S: Fiddle Hell Online handout 2021-11-3
Z: 2021 John Chambers <jc:trillian.mit.edu>
M: 4/4
L: 1/8
K: Amix
|: AAAB e3g  | edBd e2 [1 g2 | GGGB d3e | dBGB d2e2 :[2 a2 | gged eged | B2A2 A4 |]
|: aaag e2a2 | edef g2a2   |[1 GGGB d3e | dBGB d2e2 :|[2     gged eged | B2A2 A4 |]
